X: 9820
T: Denis Murphy's Quirky Fling
R: hornpipe
M: 4/4
K: Amajor
cB|AFEF ABcA|BAcA BAcB|AFEF ABcd|(3efe (3dcB ABcB|
AFEF ABcA|BAcA BAcB|AFEF ABcd|(3efe (3dcB A4||
eac'a eac'a|eac'a babc'|eac'a eac'a|babc' a4|
eac'a eac'a|eac'a bae2|(3agf fe fecd|(3efe (3dcB A4||

